icons/svg/tag-text-outline.svg

﻿<?xml version="1.0" encoding="utf-8"?>
<!DOCTYPE svg PUBLIC "-//W3C//DTD SVG 1.1//EN" "http://www.w3.org/Graphics/SVG/1.1/DTD/svg11.dtd">
<svg xmlns="http://www.w3.org/2000/svg" xmlns:xlink="http://www.w3.org/1999/xlink" version="1.1" baseProfile="full" width="24" height="24" viewBox="0 0 24.00 24.00" enable-background="new 0 0 24.00 24.00" xml:space="preserve">
	<path fill="#000000" fill-opacity="1" stroke-width="0.2" stroke-linejoin="round" d="M 5.49888,6.99854C 6.32788,6.99854 6.99888,6.3265 6.99888,5.49854C 6.99888,4.6696 6.32788,3.99854 5.49888,3.99854C 4.67088,3.99854 3.99888,4.6696 3.99888,5.49854C 3.99888,6.3265 4.67088,6.99854 5.49888,6.99854 Z M 21.4099,11.5796C 21.7739,11.9416 21.9989,12.4436 21.9989,12.9986C 21.9989,13.5506 21.7759,14.0496 21.4139,14.4126L 14.4139,21.4126C 14.0519,21.7736 13.5519,21.9986 12.9989,21.9986C 12.4479,21.9986 11.9479,21.7746 11.5849,21.4126L 2.58687,12.4146C 2.22388,12.0526 1.99887,11.5516 1.99887,10.9986L 1.99887,3.99862C 1.99887,2.89364 2.89487,1.99863 3.99887,1.99863L 10.9989,1.99863C 11.5519,1.99863 12.0519,2.22161 12.4139,2.58367L 21.4099,11.5796 Z M 13,20L 20,13L 11.5,4.50001L 4.5,11.5L 13,20 Z M 10.0858,8.91424L 11.5,7.50002L 17,13L 15.5858,14.4143L 10.0858,8.91424 Z M 7.58579,11.4142L 9,10L 13,14.0001L 11.5857,15.4143L 7.58579,11.4142 Z "/>
</svg>

<svg xmlns="http://www.w3.org/2000/svg" version="1.1" baseProfile="full" width="24" height="24" viewBox="0 0 24.00 24.00" xml:space="preserve"><path fill="#000" fill-opacity="1" stroke-width=".2" stroke-linejoin="round" d="M5.5 7C6.327 7 7 6.326 7 5.5 7 4.67 6.327 4 5.5 4 4.67 4 4 4.67 4 5.5 4 6.326 4.67 7 5.5 7zm15.91 4.58c.364.362.59.864.59 1.42 0 .55-.224 1.05-.586 1.413l-7 7c-.362.36-.862.586-1.415.586-.552 0-1.052-.225-1.415-.587l-8.998-8.998C2.224 12.053 2 11.552 2 11V4c0-1.106.895-2 2-2h7c.552 0 1.052.222 1.414.584l8.996 8.996zM13 20l7-7-8.5-8.5-7 7L13 20zM10.086 8.914L11.5 7.5 17 13l-1.414 1.414-5.5-5.5zm-2.5 2.5L9 10l4 4-1.414 1.414-4-4z"/></svg>
